local/share/icons/dracula-icons-main/scalable/apps/zoom-best-fit.svg

<?xml version="1.0" encoding="UTF-8"?>
<svg xmlns="http://www.w3.org/2000/svg" xmlns:xlink="http://www.w3.org/1999/xlink" width="64" height="64" viewBox="0 0 64 64">
<path fill-rule="nonzero" fill="rgb(12.941176%, 58.823529%, 95.294118%)" fill-opacity="1" d="M 15.609375 8.464844 C 15.609375 12.410156 12.410156 15.609375 8.464844 15.609375 C 4.519531 15.609375 1.324219 12.410156 1.324219 8.464844 C 1.324219 4.519531 4.519531 1.324219 8.464844 1.324219 C 12.410156 1.324219 15.609375 4.519531 15.609375 8.464844 Z M 15.609375 8.464844 "/>
<path fill-rule="nonzero" fill="rgb(100%, 100%, 100%)" fill-opacity="0.9" d="M 4.496094 4.523438 L 4.496094 7.699219 L 5.292969 7.699219 L 5.292969 5.316406 L 7.671875 5.316406 L 7.671875 4.523438 Z M 9.261719 4.523438 L 9.261719 5.316406 L 11.640625 5.316406 L 11.640625 7.699219 L 12.433594 7.699219 L 12.433594 4.523438 Z M 4.496094 9.285156 L 4.496094 12.460938 L 7.671875 12.460938 L 7.671875 11.667969 L 5.292969 11.667969 L 5.292969 9.285156 Z M 11.640625 9.285156 L 11.640625 11.667969 L 9.261719 11.667969 L 9.261719 12.460938 L 12.433594 12.460938 L 12.433594 9.285156 Z M 11.640625 9.285156 "/>
<path fill-rule="nonzero" fill="rgb(100%, 100%, 100%)" fill-opacity="0.9" d="M 6.085938 6.109375 L 6.085938 10.871094 L 10.847656 10.871094 L 10.847656 6.109375 Z M 6.878906 6.902344 L 10.054688 6.902344 L 10.054688 10.078125 L 6.878906 10.078125 Z M 6.878906 6.902344 "/>
</svg>

<svg width="64" height="64" version="1.1" viewBox="0 0 16.933 16.933" xmlns="http://www.w3.org/2000/svg">
 <circle cx="8.4665" cy="8.4665" r="7.1436" fill="#2196f3" style="paint-order:stroke fill markers"/>
 <path d="m4.4978 4.523v3.1749h0.79373v-2.3812h2.3812v-0.79373zm4.7624 0v0.79373h2.3812v2.3812h0.79373v-3.1749zm-4.7624 4.7624v3.1749h3.1749v-0.79373h-2.3812v-2.3812zm7.1436 0v2.3812h-2.3812v0.79373h3.1749v-3.1749z" color="#000000" fill="#fff" fill-opacity=".9" stroke-width=".79373"/>
 <path d="m6.0852 6.1104v4.7624h4.7624v-4.7624zm0.79373 0.79373h3.1749v3.1749h-3.1749z" fill="#fff" fill-opacity=".9" stroke-width=".79373"/>
</svg>
